X:5
T:Mazurka met Piston
O:Nederokkerzeel
O:Vlaanderen
B:Lange Wappers Dansboekskens
B:Muziek I
M:3/4
L:1/8
P:ABA
P:A
K:D
|: A,>D F2 F2 | (3A^GA (3BAG A2 | (3DFA (3dcB (3A=GF | A>A G4 |
A,>C E2 E2 | (3GFG (3AGF G2 | (3CEG (3cBA (3GFE | B>B A4 |
A,>D F2 F2 | (3A^GA (3BAG A2 | (3DFA (3dcB (3A=GF | E>E B4 |
(3B^AB (3GFG E2 | (3A^GA (3F^EF D2 | (3CEG (3cBA (3GFE | (3DFA d2 z2 :|
P:B
K:G
|: (3D^CD (3GFG (3B^AB | e>e d4 | (3cBc (3A^GA (3F^EF | E>E D4 |
(3D^CD (3GFG (3B^AB | (3E^DE (3A^GA (3cBc | (3FAc (3fed (3cBA | G2 g2 z2 :|
